X:1
T:C minor Stephen Jenks, 1818
T:Jeremy Belknap, 1795 Captivity (Psalm 137)       86. 86. (C. M.)
T:Adieu
T:Transcribed from Jenks' The Harmony of Zion, 1818.
%%score [ 1 2 3 4 ]
L:1/8
Q:1/4=80
M:3/4
K:Eb
V:1 treble nm="Tr." snm="Tr."
V:2 treble nm="C." snm="C."
V:3 treble-8 nm="T." snm="T."
V:4 bass nm="B." snm="B."
V:1
 c2 | c4 G2 | G4 c2 | (c2 fe) d2 | c4 B2 | (B2 G2) e2 | (d2 c2) c2 | =B4 z2 |: G2 G2 G2 | G4 B2 | %10
w: 1.~Far|from our|friends and|coun- * * try|dear In|hos- * tile|lands * we|moan;|No ten- der|hand to|
w: 2.~Our|foes vin-|dic- tive|mock~ _ _ our|grief, And|sport * with|our * com-|plaints;|No mer- cy|prompts to|
 (c2 dc) fe | (e2 d2) z2 | z4 B2 | B4 B2 | G4 G2 | G6 :| %16
w: wipe~ _ _ the *|tear,~ _|Which|flows with|eve- ry|groan.|
w: give~ _ _ re- *|lief,~ _|Though|lan- guid|mis- ery|faints.|
V:2
 C2 | E4 E2 | D4 C2 | G4 G2 | G4 E2 | E4 B,2 | F4 F>E | D4 z2 |: E2 E2 D2 | E4 G2 | G4 G2 | G4 z2 | %12
w: 3.~In|re- tro-|spec- tive|scenes em-|ployed, We|think on|for- mer *|days,|When peace- ful|sab- baths|we en-|joyed|
w: 4.~But|now, of|li- ber-|ty de-|prived, In|so- li-|tude con- *|fined,|In vain we|seek the|word of|life|
 z4 F2 | (G2 E2) F2 | E4 D2 | E6 :| %16
w: And|all * our|work was|praise.|
w: To|feed * the|star- ving|mind.|
V:3
 G2 | G4 c2 | =B4 e2 | (e2 dc) =B2 | c4 G2 | (G2 B2) B2 | A4 F2 | G4 z2 |: c2 c2 =B2 | c4 d2 | %10
w: 5.~To|thee, O|Lord, we|lift~ _ _ our|eye, To|thee, * our|cause com-|mend;|Thou hear'st the|mour- ning|
w: 6.~We|seek no|ven- geance|on~ _ _ our|foes, But|put * our|trust in|thee:|O let thy|mer- cy|
 (e2 fe) dc | (c2 =B2) G2 | (c4 d2 | e4) d2 | c4 =B2 | c6 :| %16
w: pri- * * soner's *|sigh, * Thou|art~ _|_ the|suf- ferer's|friend.|
w: in- * * ter- *|pose, * And|set~ _|_ the|cap- tives|free.|
V:4
 C,2 | C,4 C,2 | G,4 A,2 | G,4 G,,2 | C,4 E,2 | E,4 E,2 | F,4 A,2 | G,4 z2 |: C,2 C,2 G,,2 | %9
 C,4 G,2 | (E,2 D,E,) F,A, | G,4 C,2 | (C,2 A,2 G,F, | E,4) B,,2 | C,4 G,,2 | C,6 :| %16

